X: 224
T: Bert Jamieson's Set Tune No.1
B: australian dance tunes
M:2/4
L:1/16
Q: 1/4=100
K:G
V:1 
|:G2(3Bcd e2d2|G2(3Bcd e2d2|G2(3Bcd e2d2|c2F2 A4|!
d2F2 A2F2|d2F2 A2F2|1d2dd e2d2|d2B2 B2BA:|2 d2c2 B2A2| G4 G4||!
|:f2af e2f2|g2b2 d2g2|f2af e2f2|d8|!
f2af e2f2|g2b2 d2g2|f2af e2f2 g8:|!
% abcbook-tune_id 62a0785067b32c0fe79e9db3


% abcbook-boost 0
% abcbook-tablature 
% abcbook-transpose 
% abcbook-lastupdated 1654683750405
% abcbook-soundfonts 
% abcbook-repeats 1


